assets/img/main-page/trava.svg

<svg width="1920" height="356" viewBox="0 0 1920 356" fill="none" xmlns="http://www.w3.org/2000/svg">
<path d="M1920.9 102.305H-0.93457V355.968H1920.9V102.305Z" fill="#41AE5B"/>
<path fill-rule="evenodd" clip-rule="evenodd" d="M1101.43 110.086C1089.7 106.163 1078.81 99.5906 1069.89 90.9913C1074.4 94.8823 1065.87 101.52 1060.55 98.8713C1055.22 96.2229 1052.31 90.0432 1046.99 87.362C1041.66 84.6809 1033.1 91.2529 1037.58 95.2093C1033.2 91.4818 1028.79 87.7217 1024.41 83.9942C1021.04 90.2067 1016.56 95.8305 1011.24 100.506C1004.41 97.825 997.546 95.1438 990.684 92.4954C989.442 96.7787 988.168 101.062 986.926 105.345C983.429 100.702 978.855 96.8441 973.659 94.1957C969.77 92.2012 962.483 94.4245 965 98.0212C943.237 99.2309 921.212 95.3727 901.148 86.7734C905.364 90.9913 896.378 98.6097 892.914 93.7379C893.96 98.7732 893.306 104.136 891.149 108.811C888.012 103.253 884.843 97.6943 881.673 92.1685C873.765 96.8114 861.969 91.4164 860.335 82.392C859.453 87.9505 858.57 93.4763 857.688 99.0348C859.093 93.7705 851.153 89.095 847.231 92.8878C843.31 96.6807 847.656 104.757 852.982 103.58C851.12 100.31 848.767 96.7133 845.075 96.092C841.382 95.4381 837.494 100.539 840.369 102.958C825.207 91.8088 803.902 89.6508 786.811 97.5307C773.152 96.4517 759.559 94.2937 746.259 91.0894C746.194 95.4054 746.128 99.7214 746.063 104.037C735.999 95.667 722.144 92.0704 709.269 94.5227C704.596 92.5608 699.956 90.6316 695.283 88.7025C691.1 91.449 686.918 94.1957 682.735 96.9422C676.494 93.836 670.285 90.7625 664.076 87.6563C669.043 88.7353 666.658 97.4653 661.626 98.0212C656.593 98.577 652.345 94.5226 648.914 90.7952C648.947 86.7734 656.365 90.9586 653.946 94.1302C651.528 97.3345 646.398 95.9939 643.098 93.7379C639.797 91.4818 636.366 88.441 632.38 89.0295C628.426 89.6507 627.282 97.0076 631.269 96.9095C619.57 91.351 610.225 80.9534 605.944 68.7247C605.846 77.3567 605.78 85.956 605.682 94.588C601.532 90.0104 597.383 85.4656 593.232 80.888C594.344 87.3293 595.455 93.7706 596.566 100.212C591.141 92.757 582.939 87.3947 573.92 85.4983C573.92 89.4546 573.953 93.4109 573.953 97.3673C560.163 93.8687 545.851 92.4627 531.636 93.1493C533.597 95.4054 533.597 95.4381 535.557 97.6942C527.192 94.0321 518.794 90.4028 510.429 86.7408C510.2 91.4818 511.409 96.2556 513.827 100.31C510.56 97.0403 506.834 94.2283 502.815 91.9722C501.769 94.3264 501.41 97.0076 501.802 99.5579C496.508 96.4844 491.247 93.4109 485.954 90.3374C486.019 93.0185 486.999 95.6343 488.699 97.7269C481.444 93.9014 474.713 89.0949 468.733 83.4711C467.426 88.2448 468.21 93.5417 470.792 97.7596C465.629 94.8496 460.466 91.9069 455.303 88.9969C455.695 92.0377 454.878 95.2092 453.048 97.6942C451.316 96.844 450.042 95.1766 449.682 93.2802C446.872 93.5417 444.192 95.0457 442.526 97.3018C442.264 92.9858 441.121 88.7353 439.193 84.877C437.134 88.0159 435.075 91.1875 433.017 94.3264C432.069 89.7161 430.076 85.3347 427.233 81.5746C425.566 86.5118 423.867 91.4491 422.201 96.419C421.58 94.1629 420.73 91.6453 418.672 90.5663C416.58 89.4873 413.28 91.4164 414.162 93.5744C412.398 91.351 410.633 89.0949 408.868 86.8715C408.901 89.7488 408.15 92.6262 406.679 95.0784C405.47 93.3128 404.261 91.5799 403.019 89.8143C401.941 91.5145 400.83 93.182 399.752 94.8823C397.66 93.509 395.569 92.1031 393.51 90.7298C392.628 92.6589 391.778 94.588 390.896 96.5171C387.334 95.2746 383.805 94.0648 380.243 92.8224C375.44 92.6916 370.636 92.5608 365.833 92.3973C367.238 94.3918 368.676 96.419 370.081 98.4135C363.872 96.3536 357.402 95.0458 350.899 94.5227C352.925 96.1902 354.984 97.8904 357.01 99.5579C335.247 96.8441 313.092 97.4326 291.525 101.324C284.957 102.501 279.238 95.9286 278.487 89.2911C278.781 92.1031 278.258 95.0131 277.016 97.5634C270.546 94.9804 265.024 90.0104 261.789 83.8307C261.626 87.035 261.495 90.2066 261.331 93.4109C256.136 91.2202 251.561 87.6235 248.195 83.1114C247.378 85.2367 246.594 87.362 245.777 89.4546C236.987 82.5882 228.197 75.7218 219.439 68.8882C218.721 77.7163 218.949 86.61 220.093 95.4054C215.224 89.9124 210.355 84.3865 205.486 78.8934C205.062 83.6345 204.669 88.3756 204.245 93.1166C203.199 91.4491 202.153 89.7489 201.075 88.0486C200.421 89.7489 199.735 91.4818 199.082 93.1821C193.232 80.888 190.618 67.0899 191.566 53.5207C191.272 68.9536 189.736 84.3866 187.024 99.6234C184.867 83.2749 182.743 66.9591 180.586 50.6106C173.169 63.0354 169.476 77.5856 169.999 92.0377C165.816 82.6209 163.202 72.5175 162.287 62.2507C158.399 70.5884 155.719 79.5147 154.412 88.6371C151.602 82.8825 148.824 77.1278 146.014 71.3732C143.759 78.2395 141.537 85.0732 139.283 91.9396C137.289 87.8198 135.263 83.6999 133.27 79.5474C131.113 84.3539 128.924 89.1603 126.767 93.9668C123.107 92.0049 120.265 88.6045 118.925 84.6808C117.029 88.3102 115.951 92.3646 115.82 96.4518C112.226 91.1549 109.318 85.4002 107.226 79.3512C106.54 84.6808 105.887 89.9777 105.2 95.3074C102.75 93.3128 100.299 91.3183 97.8481 89.3565C96.5736 91.024 95.7894 93.0839 95.626 95.1765C93.5347 95.7978 91.2146 95.4708 89.3847 94.3264C88.241 96.1247 87.13 97.8904 85.9863 99.6887C78.2745 96.746 69.5497 96.5825 61.7072 99.1656C58.897 95.5035 55.3352 92.4627 51.2832 90.272C50.4009 92.3973 49.5513 94.5553 48.6691 96.6806C46.6431 95.4054 43.5714 96.5498 42.8852 98.8386C28.9321 95.6016 14.1948 95.8959 0.405029 99.6887C26.4487 141.77 66.0859 173.649 113.925 186.205C140.688 193.235 168.594 194.052 196.239 194.837C320.248 198.335 444.258 201.834 568.267 205.3C661.266 207.916 751.814 210.727 844.421 201.638C937.093 192.385 1028.07 167.371 1101.43 110.086Z" fill="#41AE5B"/>
<path fill-rule="evenodd" clip-rule="evenodd" d="M1598.28 0.617188C1583.58 18.9275 1574.07 41.3248 1571.16 64.605C1577.99 48.6489 1590.31 35.1451 1605.57 26.9055C1597.01 36.5184 1590.73 48.1585 1587.47 60.6487C1596.48 54.7306 1606.06 49.6953 1616.06 45.6408C1613.12 53.4227 1610.21 61.2045 1607.27 68.9864C1612.89 65.3897 1618.51 61.8258 1624.13 58.2292C1624.32 61.5316 1624.55 64.834 1624.75 68.1363C1624.39 62.4144 1641.74 73.0409 1641.51 73.0082C1648.7 74.8719 1657.56 70.9483 1665.89 71.0137C1663.9 76.1144 1660.66 80.7247 1656.51 84.2886C1671.22 82.2941 1685.4 76.7356 1697.59 68.2344C1695.14 75.4278 1689.71 81.5421 1682.85 84.7791C1694.48 83.1115 1705.76 79.0244 1715.76 72.9101C1713.24 79.286 1709.38 85.1715 1704.55 90.0106C1711.57 90.5992 1718.73 89.4874 1725.23 86.8063C1725.2 89.0297 1725.17 91.2531 1725.17 93.4765C1733.4 90.3049 1742.09 88.343 1750.88 87.7218C1749.84 90.174 1748.79 92.6263 1747.75 95.0786C1755.03 94.0323 1762.29 93.0186 1769.54 91.9723C1777.29 97.1385 1788.72 95.8307 1795.1 88.997C1795.42 93.8035 1803.53 95.2747 1805.52 90.8607C1813 94.7843 1821.99 95.7979 1830.16 93.6399C1828.23 94.6208 1826.33 95.6017 1824.41 96.5826C1837.41 98.054 1850.71 96.648 1863.13 92.4301C1864.34 93.7707 1865.58 95.0786 1866.79 96.4192C1868.42 93.4765 1870.02 90.5337 1871.66 87.591C1872.28 90.1086 1872.93 92.6263 1873.55 95.144C1875.06 89.5528 1876.59 83.9617 1878.1 78.3705C1879.08 82.9808 1880.06 87.591 1881.04 92.2012C1882.64 86.8716 1884.24 81.5421 1885.84 76.2125C1887.08 82.7192 1888.36 89.2585 1889.6 95.7652C1892.44 91.6781 1895.25 87.591 1898.09 83.4712C1901.07 92.5283 1909.27 99.6888 1918.65 101.389C1889.7 112.604 1860.65 123.852 1830.35 130.588C1809.28 135.296 1787.78 137.748 1766.31 140.037C1703.89 146.674 1640.76 154.227 1577.99 151.906C1551.23 150.86 1524.46 149.781 1497.7 148.734C1466.63 147.492 1435.22 146.249 1405.16 138.271C1389.93 134.217 1375.1 128.495 1359.51 126.075C1337.29 122.609 1314.58 126.075 1292.13 124.669C1264.13 122.936 1237.13 113.683 1209.42 109.4C1189.1 106.261 1168.48 105.771 1147.96 105.313C1117.44 104.593 1086.92 103.907 1056.4 103.187C1070.51 102.01 1084.66 100.801 1098.78 99.6235C1093.91 94.8171 1089.04 90.0106 1084.17 85.2042C1101.23 87.8526 1117.77 93.6727 1132.73 102.272C1130.38 96.6481 1127.99 91.0241 1125.64 85.433C1129.99 84.6482 1133.19 89.1932 1136.78 91.7435C1140.38 94.2939 1147.73 91.907 1145.57 88.0488C1150.18 90.8607 1154.79 93.64 1159.4 96.4519C1159.62 93.2803 1163.61 91.5473 1166.65 92.4301C1169.69 93.313 1171.94 95.8306 1173.97 98.2502C1175.15 95.2421 1176.36 92.2013 1177.53 89.1932C1180.5 90.828 1183.48 92.4629 1186.42 94.0977C1194.16 91.5147 1203.02 92.4629 1210.05 96.6481C1210.34 90.403 1210.63 84.1578 1210.93 77.9127C1217.66 79.711 1224.06 82.7845 1229.68 86.9044C1237.17 85.5638 1245.24 88.2776 1250.37 93.8688C1250.99 88.5065 1251.61 83.1442 1252.2 77.7819C1251.74 81.6728 1280.3 88.7354 1284.12 92.0705C1283.44 90.5338 1283.24 88.7681 1283.63 87.1005C1285.66 88.2776 1287.69 89.4548 1289.71 90.6319C1289.06 88.7681 1288.89 86.6755 1289.32 84.7463C1290.82 83.9616 1292.65 84.8117 1293.99 85.858C1295.33 86.9043 1296.67 88.1795 1298.34 88.343C1300.04 88.5065 1301.87 86.5774 1300.89 85.2042C1303.21 85.6619 1305.27 87.2313 1306.28 89.3566C1307.03 88.1141 1307.23 86.6101 1306.83 85.2368C1308.01 86.3485 1309.15 87.4602 1310.33 88.5719C1310.4 87.1333 1310.46 85.7273 1310.53 84.2886C1313.76 85.3676 1316.67 87.3948 1318.79 90.076C1318.86 86.0869 1318.89 82.1306 1318.96 78.1416C1321.57 82.8173 1324.9 86.9044 1329.09 90.076C1329.77 85.2041 1330.33 80.2996 1330.95 75.3951C1333.2 79.0898 1335.46 82.7846 1337.68 86.512C1337.91 83.7982 1338.14 81.117 1338.37 78.4031C1338.2 80.5284 1355.03 84.1578 1356.57 87.2313C1357.19 85.2368 1357.42 83.1115 1357.26 81.0189C1358.99 83.602 1361.5 85.6945 1364.38 86.8716C1365.46 85.4657 1367.52 84.9426 1369.12 85.6946C1369.64 83.9616 1370.16 82.196 1370.72 80.4631C1372.35 82.196 1373.99 83.9289 1375.59 85.6946C1375.26 82.6211 1375.59 79.4822 1376.5 76.5068C1378.89 79.0898 1380.75 82.1961 1381.96 85.5311C1381.8 84.3214 1383.56 83.602 1384.64 84.1906C1385.72 84.7791 1386.17 86.0543 1386.6 87.2313C1387.71 85.9889 1388.79 84.7137 1389.9 83.4712C1397.22 84.5175 1404.8 83.7328 1411.76 81.2151C1413.26 81.4767 1414.8 81.7382 1416.3 81.9998C1416.96 82.0979 1417.58 82.2287 1418.23 82.3268C1417.94 81.0516 1418.17 79.6456 1418.88 78.534C1419.64 79.8745 1420.88 80.9208 1422.35 81.4113C1422.41 79.4822 1422.48 77.553 1422.54 75.6239C1421.63 76.4413 1423.49 77.8146 1424.41 76.9972C1425.29 76.1798 1425.03 74.7084 1424.57 73.5967C1428.36 75.7874 1431.46 79.0898 1433.46 83.0134C1433.62 80.6592 1435.88 77.4549 1437.44 79.2206C1437.58 77.7819 1437.71 76.3433 1437.84 74.8719C1438.78 76.3433 1439.76 77.9127 1441.33 78.7301C1442.9 79.5148 1445.19 79.1552 1445.88 77.5531C1446.63 79.1879 1448.23 80.4304 1450.03 80.7247C1450.06 79.4168 1450.12 78.1416 1450.16 76.8337C1451.59 77.128 1453.06 77.455 1454.5 77.7493C1456.99 78.5667 1459.5 79.3841 1461.99 80.2015C1460.74 78.5013 1460.45 76.1798 1461.27 74.2507C1465.78 76.8337 1470.32 79.4168 1474.83 81.9998C1473.95 79.1879 1473.03 76.376 1472.15 73.564C1476.85 77.8147 1487.28 84.681 1491.85 79.5803C1495.25 75.8528 1495.81 58.3273 1493.98 53.8478C1497.24 61.8586 1500.54 69.8692 1503.81 77.88C1504.04 69.673 1505.35 61.4989 1507.77 53.6516C1511.29 60.2891 1514.79 66.9265 1518.32 73.5313C1521.82 66.338 1525.31 59.1446 1528.81 51.9186C1535.05 56.2346 1540.54 61.6296 1545.02 67.7766C1546.88 64.6377 1548.61 61.4989 1550.8 58.5562C1563.87 71.733 1569.33 45.412 1572.96 37.5974C1579.43 23.6031 1588.64 12.617 1598.28 0.617188Z" fill="#41AE5B"/>
<path fill-rule="evenodd" clip-rule="evenodd" d="M1920.9 206.379C1896.23 189.442 1858.52 176.657 1829.67 168.777C1838 178.39 1843.1 190.75 1843.98 203.436C1819.83 193.006 1794.44 185.42 1768.5 180.908C1771.8 191.175 1775.1 201.409 1778.4 211.676C1752.03 196.504 1722.36 187.12 1692.06 184.308C1695.82 194.477 1699.61 204.646 1703.37 214.815C1677.98 208.7 1651.94 205.234 1625.83 204.417C1628.21 211.61 1630.6 218.836 1632.98 226.03C1534.89 237.016 1437.61 255.293 1342.22 280.699C1315.4 287.827 1287.36 303.391 1261.81 314.246C1479.73 332.36 1702.42 322.616 1920.87 312.873L1920.9 206.379Z" fill="url(#paint0_linear_1415_2296)"/>
<path fill-rule="evenodd" clip-rule="evenodd" d="M-0.967285 149.682C20.763 142.423 39.0294 132.157 57.9822 119.274C56.3483 131.078 54.6818 142.881 53.0479 154.717C89.973 144.778 128.467 140.723 166.633 142.75C154.085 152.069 141.537 161.42 129.022 170.739C145.263 169.693 161.503 168.679 177.744 167.633C181.534 167.404 185.815 167.306 188.625 169.889C191.435 172.472 190.357 178.586 186.566 178.455C202.153 177.932 217.708 177.442 233.295 176.951C233.262 182.87 228.72 188.461 222.936 189.703C251.659 192.94 281.232 188.134 307.472 176.036C301.818 184.21 314.889 192.254 324.692 193.725C353.906 198.106 383.086 202.488 412.3 206.869C405.862 210.727 399.458 214.586 393.053 218.444C407.3 216.286 421.384 222.138 434.814 227.37C499.874 252.677 569.509 266.083 639.307 266.737C650.221 266.835 665.057 278.868 673.422 285.865C525.068 287.304 376.714 289.527 228.36 289.527H-0.509806L-0.967285 149.682Z" fill="url(#paint1_linear_1415_2296)"/>
<defs>
<linearGradient id="paint0_linear_1415_2296" x1="1590.62" y1="78.1516" x2="1591.55" y2="302.249" gradientUnits="userSpaceOnUse">
<stop stop-color="#74BC71"/>
<stop offset="1" stop-color="#41AE5B"/>
</linearGradient>
<linearGradient id="paint1_linear_1415_2296" x1="337.344" y1="3.01537" x2="335.925" y2="275.788" gradientUnits="userSpaceOnUse">
<stop stop-color="#74BC71"/>
<stop offset="1" stop-color="#41AE5B"/>
</linearGradient>
</defs>
</svg>

<svg width="1920" height="356" fill="none" xmlns="http://www.w3.org/2000/svg"><path d="M1920.9 102.305H-.935v253.663H1920.9V102.305z" fill="#41AE5B"/><path fill-rule="evenodd" clip-rule="evenodd" d="M1101.43 110.086c-11.73-3.923-22.62-10.495-31.54-19.095 4.51 3.891-4.02 10.529-9.34 7.88-5.33-2.648-8.24-8.828-13.56-11.509-5.33-2.681-13.89 3.89-9.41 7.847-4.38-3.727-8.79-7.487-13.17-11.215a60.354 60.354 0 01-13.17 16.512 3863.383 3863.383 0 00-20.556-8.01c-1.242 4.283-2.516 8.566-3.758 12.849a38.699 38.699 0 00-13.267-11.15c-3.889-1.994-11.176.23-8.659 3.826-21.763 1.21-43.788-2.648-63.852-11.248 4.216 4.218-4.77 11.837-8.234 6.965 1.046 5.035.392 10.398-1.765 15.073a2740.568 2740.568 0 00-9.476-16.643c-7.908 4.643-19.704-.752-21.338-9.776-.882 5.559-1.765 11.084-2.647 16.643 1.405-5.264-6.535-9.94-10.457-6.147-3.921 3.793.425 11.869 5.751 10.692-1.862-3.27-4.215-6.867-7.907-7.488-3.693-.654-7.581 4.447-4.706 6.866-15.162-11.15-36.467-13.307-53.558-5.427a261.15 261.15 0 01-40.552-6.442l-.196 12.948c-10.064-8.37-23.919-11.967-36.794-9.514a2526.026 2526.026 0 00-13.986-5.82l-12.548 8.24c-6.241-3.107-12.45-6.18-18.659-9.287 4.967 1.08 2.582 9.81-2.45 10.365-5.033.556-9.281-3.498-12.712-7.226.033-4.022 7.451.164 5.032 3.335-2.418 3.205-7.548 1.864-10.848-.392-3.301-2.256-6.732-5.297-10.718-4.709-3.954.622-5.098 7.979-1.111 7.88-11.699-5.558-21.044-15.956-25.325-28.184-.098 8.632-.164 17.231-.262 25.863-4.15-4.578-8.299-9.122-12.45-13.7l3.334 19.324c-5.425-7.455-13.627-12.817-22.646-14.714 0 3.957.033 7.913.033 11.87-13.79-3.5-28.102-4.905-42.317-4.219 1.961 2.256 1.961 2.29 3.921 4.545-8.365-3.662-16.763-7.291-25.128-10.953a24.365 24.365 0 003.398 13.569 50.627 50.627 0 00-11.012-8.338 13.724 13.724 0 00-1.013 7.586c-5.294-3.074-10.555-6.147-15.848-9.22a12.246 12.246 0 002.745 7.389 91.423 91.423 0 01-19.966-14.256c-1.307 4.774-.523 10.07 2.059 14.289-5.163-2.91-10.326-5.853-15.489-8.763a12.178 12.178 0 01-2.255 8.697 6.276 6.276 0 01-3.366-4.414c-2.81.262-5.49 1.766-7.156 4.022a32.252 32.252 0 00-3.333-12.425c-2.059 3.139-4.118 6.31-6.176 9.45a31.856 31.856 0 00-5.784-12.752c-1.667 4.937-3.366 9.874-5.032 14.844-.621-2.256-1.471-4.774-3.529-5.853-2.092-1.079-5.392.85-4.51 3.008-1.764-2.223-3.529-4.48-5.294-6.703.033 2.878-.718 5.755-2.189 8.207a505.716 505.716 0 00-3.66-5.264c-1.078 1.7-2.189 3.368-3.267 5.068-2.092-1.373-4.183-2.779-6.242-4.152-.882 1.929-1.732 3.858-2.614 5.787-3.562-1.242-7.091-2.452-10.653-3.695-4.803-.13-9.607-.261-14.41-.425 1.405 1.995 2.843 4.022 4.248 6.016a81.91 81.91 0 00-19.182-3.89c2.026 1.667 4.085 3.367 6.111 5.035a217.711 217.711 0 00-65.485 1.766c-6.568 1.177-12.287-5.395-13.038-12.033a15.395 15.395 0 01-1.471 8.272c-6.47-2.583-11.992-7.553-15.227-13.732-.163 3.204-.294 6.376-.458 9.58a31.981 31.981 0 01-13.136-10.3c-.817 2.126-1.601 4.251-2.418 6.344-8.79-6.867-17.58-13.733-26.338-20.567-.718 8.828-.49 17.722.654 26.517-4.869-5.493-9.738-11.019-14.607-16.512-.424 4.742-.817 9.483-1.241 14.224-1.046-1.668-2.092-3.368-3.17-5.068-.654 1.7-1.34 3.433-1.993 5.133-5.85-12.294-8.464-26.092-7.516-39.661-.294 15.433-1.83 30.866-4.542 46.102-2.157-16.348-4.281-32.664-6.438-49.012-7.417 12.424-11.11 26.975-10.587 41.427a94.09 94.09 0 01-7.712-29.787 94.2 94.2 0 00-7.875 26.386c-2.81-5.755-5.588-11.51-8.398-17.264-2.255 6.867-4.477 13.7-6.731 20.567-1.994-4.12-4.02-8.24-6.013-12.393-2.157 4.807-4.346 9.613-6.503 14.42-3.66-1.962-6.502-5.362-7.842-9.286a27.434 27.434 0 00-3.105 11.77 73 73 0 01-8.594-17.1c-.686 5.33-1.339 10.627-2.026 15.956a1144.29 1144.29 0 00-7.352-5.95 11.097 11.097 0 00-2.222 5.82 7.745 7.745 0 01-6.241-.85c-1.144 1.798-2.255 3.563-3.399 5.362-7.712-2.943-16.436-3.106-24.279-.523a32.867 32.867 0 00-10.424-8.894c-.882 2.125-1.732 4.283-2.614 6.409-2.026-1.276-5.098-.131-5.784 2.158-13.953-3.237-28.69-2.943-42.48.85 26.044 42.081 65.68 73.96 113.52 86.516 26.763 7.03 54.669 7.847 82.314 8.632 124.009 3.498 248.019 6.997 372.028 10.463 92.999 2.616 183.547 5.427 276.154-3.662 92.672-9.253 183.649-34.267 257.009-91.552z" fill="#41AE5B"/><path fill-rule="evenodd" clip-rule="evenodd" d="M1598.28.617c-14.7 18.31-24.21 40.708-27.12 63.988 6.83-15.956 19.15-29.46 34.41-37.7-8.56 9.613-14.84 21.253-18.1 33.744a165.09 165.09 0 0128.59-15.008c-2.94 7.782-5.85 15.564-8.79 23.345 5.62-3.596 11.24-7.16 16.86-10.757.19 3.303.42 6.605.62 9.907-.36-5.722 16.99 4.905 16.76 4.872 7.19 1.864 16.05-2.06 24.38-1.994-1.99 5.1-5.23 9.71-9.38 13.275 14.71-1.995 28.89-7.553 41.08-16.055-2.45 7.194-7.88 13.308-14.74 16.545 11.63-1.667 22.91-5.755 32.91-11.869a50.752 50.752 0 01-11.21 17.1c7.02.59 14.18-.523 20.68-3.204-.03 2.224-.06 4.447-.06 6.67 8.23-3.171 16.92-5.133 25.71-5.754-1.04 2.452-2.09 4.904-3.13 7.357 7.28-1.047 14.54-2.06 21.79-3.107 7.75 5.166 19.18 3.859 25.56-2.975.32 4.806 8.43 6.278 10.42 1.864 7.48 3.923 16.47 4.937 24.64 2.779-1.93.98-3.83 1.962-5.75 2.943 13 1.471 26.3.065 38.72-4.153 1.21 1.34 2.45 2.649 3.66 3.99 1.63-2.944 3.23-5.886 4.87-8.829.62 2.518 1.27 5.035 1.89 7.553 1.51-5.591 3.04-11.182 4.55-16.773l2.94 13.83 4.8-15.988c1.24 6.506 2.52 13.046 3.76 19.552 2.84-4.087 5.65-8.174 8.49-12.294 2.98 9.057 11.18 16.218 20.56 17.918-28.95 11.215-58 22.463-88.3 29.199-21.07 4.708-42.57 7.16-64.04 9.449-62.42 6.637-125.55 14.19-188.32 11.869-26.76-1.046-53.53-2.125-80.29-3.172-31.07-1.242-62.48-2.485-92.54-10.463-15.23-4.054-30.06-9.776-45.65-12.196-22.22-3.466-44.93 0-67.38-1.406-28-1.733-55-10.986-82.71-15.269-20.32-3.139-40.94-3.629-61.46-4.087-30.52-.72-61.04-1.406-91.56-2.126 14.11-1.177 28.26-2.386 42.38-3.563l-14.61-14.42a141.128 141.128 0 0148.56 17.068c-2.35-5.624-4.74-11.248-7.09-16.839 4.35-.785 7.55 3.76 11.14 6.31 3.6 2.55 10.95.164 8.79-3.694 4.61 2.812 9.22 5.591 13.83 8.403.22-3.172 4.21-4.905 7.25-4.022s5.29 3.4 7.32 5.82c1.18-3.008 2.39-6.049 3.56-9.057 2.97 1.635 5.95 3.27 8.89 4.905 7.74-2.583 16.6-1.635 23.63 2.55.29-6.245.58-12.49.88-18.735a56.495 56.495 0 0118.75 8.991c7.49-1.34 15.56 1.374 20.69 6.965.62-5.362 1.24-10.725 1.83-16.087-.46 3.89 28.1 10.953 31.92 14.288-.68-1.536-.88-3.302-.49-4.97 2.03 1.178 4.06 2.355 6.08 3.532-.65-1.864-.82-3.957-.39-5.886 1.5-.784 3.33.066 4.67 1.112 1.34 1.046 2.68 2.322 4.35 2.485 1.7.163 3.53-1.766 2.55-3.139 2.32.458 4.38 2.027 5.39 4.153.75-1.243.95-2.747.55-4.12 1.18 1.112 2.32 2.223 3.5 3.335.07-1.439.13-2.845.2-4.283a17.762 17.762 0 018.26 5.787c.07-3.99.1-7.945.17-11.934 2.61 4.675 5.94 8.762 10.13 11.934.68-4.872 1.24-9.776 1.86-14.68 2.25 3.694 4.51 7.389 6.73 11.116l.69-8.109c-.17 2.125 16.66 5.755 18.2 8.828.62-1.994.85-4.12.69-6.212 1.73 2.583 4.24 4.675 7.12 5.853 1.08-1.406 3.14-1.93 4.74-1.177.52-1.733 1.04-3.499 1.6-5.232 1.63 1.733 3.27 3.466 4.87 5.232-.33-3.074 0-6.213.91-9.188 2.39 2.583 4.25 5.69 5.46 9.024-.16-1.21 1.6-1.929 2.68-1.34 1.08.588 1.53 1.863 1.96 3.04 1.11-1.242 2.19-2.517 3.3-3.76 7.32 1.046 14.9.262 21.86-2.256 1.5.262 3.04.523 4.54.785.66.098 1.28.229 1.93.327a5.061 5.061 0 01.65-3.793c.76 1.34 2 2.387 3.47 2.877.06-1.929.13-3.858.19-5.787-.91.817.95 2.19 1.87 1.373.88-.817.62-2.289.16-3.4 3.79 2.19 6.89 5.493 8.89 9.416.16-2.354 2.42-5.558 3.98-3.792.14-1.44.27-2.878.4-4.35.94 1.472 1.92 3.042 3.49 3.86 1.57.784 3.86.424 4.55-1.178.75 1.635 2.35 2.877 4.15 3.172.03-1.308.09-2.583.13-3.891 1.43.294 2.9.621 4.34.915 2.49.818 5 1.635 7.49 2.453-1.25-1.7-1.54-4.022-.72-5.951 4.51 2.583 9.05 5.166 13.56 7.749-.88-2.812-1.8-5.624-2.68-8.436 4.7 4.25 15.13 11.117 19.7 6.016 3.4-3.727 3.96-21.253 2.13-25.732 3.26 8.01 6.56 16.021 9.83 24.032.23-8.207 1.54-16.381 3.96-24.228 3.52 6.637 7.02 13.275 10.55 19.88 3.5-7.194 6.99-14.387 10.49-21.613 6.24 4.316 11.73 9.71 16.21 15.858 1.86-3.14 3.59-6.278 5.78-9.22 13.07 13.176 18.53-13.145 22.16-20.96 6.47-13.994 15.68-24.98 25.32-36.98z" fill="#41AE5B"/><path fill-rule="evenodd" clip-rule="evenodd" d="M1920.9 206.379c-24.67-16.937-62.38-29.722-91.23-37.602 8.33 9.613 13.43 21.973 14.31 34.659a335.679 335.679 0 00-75.48-22.528c3.3 10.267 6.6 20.501 9.9 30.768-26.37-15.172-56.04-24.556-86.34-27.368 3.76 10.169 7.55 20.338 11.31 30.507-25.39-6.115-51.43-9.581-77.54-10.398l7.15 21.613a1991.538 1991.538 0 00-290.76 54.669c-26.82 7.128-54.86 22.692-80.41 33.547 217.92 18.114 440.61 8.37 659.06-1.373l.03-106.494z" fill="url(#paint0_linear_1415_2296)"/><path fill-rule="evenodd" clip-rule="evenodd" d="M-.967 149.682c21.73-7.259 39.996-17.525 58.95-30.408-1.635 11.804-3.301 23.607-4.935 35.443a363.703 363.703 0 01113.585-11.967c-12.548 9.319-25.096 18.67-37.611 27.989 16.241-1.046 32.481-2.06 48.722-3.106 3.79-.229 8.071-.327 10.881 2.256 2.81 2.583 1.732 8.697-2.059 8.566 15.587-.523 31.142-1.013 46.729-1.504-.033 5.919-4.575 11.51-10.359 12.752 28.723 3.237 58.296-1.569 84.536-13.667-5.654 8.174 7.417 16.218 17.22 17.689 29.214 4.381 58.394 8.763 87.608 13.144-6.438 3.858-12.842 7.717-19.247 11.575 14.247-2.158 28.331 3.694 41.761 8.926 65.06 25.307 134.695 38.713 204.493 39.367 10.914.098 25.75 12.131 34.115 19.128-148.354 1.439-296.708 3.662-445.062 3.662H-.51l-.457-139.845z" fill="url(#paint1_linear_1415_2296)"/><defs><linearGradient id="paint0_linear_1415_2296" x1="1590.62" y1="78.152" x2="1591.55" y2="302.249" gradientUnits="userSpaceOnUse"><stop stop-color="#74BC71"/><stop offset="1" stop-color="#41AE5B"/></linearGradient><linearGradient id="paint1_linear_1415_2296" x1="337.344" y1="3.015" x2="335.925" y2="275.788" gradientUnits="userSpaceOnUse"><stop stop-color="#74BC71"/><stop offset="1" stop-color="#41AE5B"/></linearGradient></defs></svg>
